X: 82
T:2nd Gaurds Slow March. JMP.082
M:C
L:1/8
Q:110
S:John Miller MS. Perth, 1799.(for the fife)
R:March
O:Scotland
A:Perth
N:Coldstream..
H:1799
Z:vmp.C. Graebe
K:G major
d>B | G2 G>G GBAc | B2 B>B Bdce | dgfe dcBA | G2 G>G G2 dB |!
G2 G>G GBAc | B2 B>B Bdce | dgfe dcBA | G2 G>G G2 :||!
B>c | d2 d>d d2 e2 | e2 d>d d2 B>c | dBgf gdcB | B2 A>A A2 Bc |!
dBGB dBGB | cAFA cAFA | BGDG BdcB |  A2 A>A BcBA |!
G2 G>G GBAc | B2 B>B Bdce | dgfe dcBA | G2 G>G G2 :|]
